!!!COM:	Martini, Johannes
!!!CDT:	~1440///-~1497//
!!!OTL:	Non per la
!!!AGN:	Song; Chanson
!!!SCT:	Mar3021
!!!SCA:	Mar3021
!!!voices:	3
**kern	**kern	**kern
*staff3	*staff2	*staff1
*Ivox	*Ivox	*Ivox
*I"Bassus	*I"Tenor	*I"Altus
*I'B	*I'T	*I'A
*clefF4	*clefGv2	*clefG2
*k[b-e-]	*k[b-e-]	*k[b-e-]
*M2/1	*M2/1	*M2/1
*met(C|)	*met(C|)	*met(C|)
=1-	=1-	=1-
1BB-	1r	0r
2D\	1B-	.
2E-\	.	.
=2	=2	=2
2.F\	2.A/	0r
4G\	4B-\	.
2A\	2c\	.
[2G\	[2B-\	.
=3	=3	=3
2G\]	2B-\]	0r
4F\	4A/	.
4E-\	4G/	.
2D\	2F/	.
2C/	[2G/	.
=4	=4	=4
2E-\	4G/]	1r
.	4C/	.
2F\	1F	.
1G	.	1b-
.	2Eni/	.
=5	=5	=5
1F	2.F/	2.a/
.	4G/	4b-\
1r	2A/	2cc\
.	[2G/	[2b-\
=6	=6	=6
0r	2G/]	2b-\]
.	4F/	4a/
.	4E-/	4g/
.	2D/	2f/
.	2C/	[2g/
=7	=7	=7
1r	2E-/	4g/]
.	.	4c/
.	2F/	1f
1B-	1G	.
.	.	2eni/
=8	=8	=8
2.A\	1F	1.f
4B-\	.	.
2c\	1r	.
[2B-\	.	[2d/
=9	=9	=9
2B-\]	0r	4d/]
.	.	4e-/
4A\	.	2.f/
4G\	.	.
2F\	.	.
.	.	4e-/
[2G\	.	[2d/
=10	=10	=10
4G\]	0r	2d/]
4C/	.	.
1F	.	4c/
.	.	4B-/
.	.	2A/
2E-\	.	[2B-/
=11	=11	=11
1F	1.f	2B-/]
.	.	2A/
[1BB-	.	1B-
.	[2d\	.
=12	=12	=12
1BB-]	4d\]	0r
.	4e-\	.
.	2.f\	.
1BB-	.	.
.	4e-\	.
.	[2d\	.
=13	=13	=13
0C	2d\]	1r
.	4c\	.
.	4B-\	.
.	2.A/	2r
.	.	2c/
.	4G/	.
=14	=14	=14
1BB-	1B-	4d/
.	.	4e-/
.	.	4f/
.	.	4g/
2r	2A/	2a/
2BB-/	2B-\	[2f/
=15	=15	=15
1C	1G	2f/]
.	.	2eni/
2r	2F/	1f
2D\	2A/	.
=16	=16	=16
1E-	2G/	2r
.	2B-\	1b-
2r	1c	.
2F\	.	2a/
=17	=17	=17
1G	2r	2b-\
.	2B-\	2.dd\
2r	2A/	.
.	.	4cc\
2A\	2F/	[2cc\
=18	=18	=18
1B-	1G	4cc\]
.	.	4b-\
.	.	1b-
2r	1F	.
2c\	.	2a/
=19	=19	=19
1d	2r	4b-\
.	.	4a/
.	1f	4g/
.	.	4f/
1c	.	1g
.	2eni\	.
=20	=20	=20
2F\	2f\	1f
1B-	1d	.
.	.	2B-/
2A\	2c\	2c/
=21	=21	=21
1G	2d\	4B-/
.	.	4c/
.	1B-	4d/
.	.	4e-/
2.F\	.	4f/
.	.	4g/
.	2A/	2a/
4E-\	.	.
=22	=22	=22
4D\	2B-\	2f/
4C/	.	.
2BB-/	2d\	1b-
2E-\	1c	.
2F\	.	2a/
=23	=23	=23
2.G\	0B-	2.b-\
4A\	.	4a/
2B-\	.	2f/
[2E-\	.	[2g/
=24	=24	=24
4E-\]	1B-	4g/]
4F\	.	4f/
2G\	.	2d/
2.C/	2.c\	2.e-/
4D\	4B-\	4d/
=25	=25	=25
2E-\	2G/	2B-/
2.BB-/	2F/	2.d/
.	[1B-	.
4C/	.	4e-/
2D\	.	2f/
=26	=26	=26
2GG/	1B-]	2g/
2BB-/	.	4f/
.	.	4g/
2C/	1A	4a/
.	.	4g/
2D\	.	4f/
.	.	4e-/
=27	=27	=27
0BB-;	0B-;	0d;
=28	=28	=28
1D	0r	0r
2.E-\	.	.
4F\	.	.
=29	=29	=29
2G\	0r	1r
1F	.	.
.	.	1d
4E-\	.	.
4D\	.	.
=30	=30	=30
1C	0r	2.e-/
.	.	4f/
1BB-	.	2g/
.	.	[2f/
=31	=31	=31
2D\	1r	2f/]
2E-\	.	4e-/
.	.	4d/
1F	1A	1c
=32	=32	=32
2r	2.B-\	4B-/
.	.	4c/
1BB-	.	4d/
.	4c\	4e-/
.	2d\	2f/
2E-\	[2c\	2g/
=33	=33	=33
2F\	2c\]	2c/
2BB-/	4B-\	1f
.	4A/	.
1C	1G	.
.	.	2eni/
=34	=34	=34
1c	0F	2f/
.	.	2.cc\
2r	.	.
.	.	4b-\
[2c\	.	[2a/
=35	=35	=35
2c\]	2r	2a/]
2A\	1f	4g/
.	.	4f/
2B-\	.	1g
2c\	2eni\	.
=36	=36	=36
1F	2f\	0f
.	1d	.
2r	.	.
[2F\	4c\	.
.	4B-\	.
=37	=37	=37
2F\]	2A/	1f
2D\	1B-	.
2E-\	.	2e-/
2F\	4A/	4d/
.	4G/	4c/
=38	=38	=38
2BB-/	2F/	0d
1B-	1G	.
2A\	4F/	.
.	4E-/	.
=39	=39	=39
2F\	2D/	1r
1G	1E-	.
.	.	1c
4F\	4D/	.
4E-\	4C/	.
=40	=40	=40
4F\	1BB-	2d/
4E-\	.	.
4D\	.	1f
4C/	.	.
2BB-/	1B-	.
2E-\	.	2g/
=41	=41	=41
2F\	1r	2f/
2G\	.	2d/
1C	1c	2e-/
.	.	4d/
.	.	4c/
=42	=42	=42
2r	2d\	1B-
2BB-/	1f	.
2D\	.	2r
2E-\	2g\	2b-\
=43	=43	=43
2F\	2f\	2a/
2G\	2d\	2b-\
2C/	2e-\	2cc\
2G\	4d\	4b-\
.	4c\	4cc\
=44	=44	=44
4G\	1B-	2dd\
4F\	.	.
4E-\	.	4cc\
4D\	.	4b-\
2C/	2r	4cc\
.	.	4b-\
2E-\	2B-\	4a/
.	.	4g/
=45	=45	=45
2F\	2A/	2f/
2G\	2B-\	1b-
1F	1c	.
.	.	2a/
=46	=46	=46
0BB-l	0B-l	0b-l
==	==	==
*-	*-	*-
!!!RDF**kern: l=long note in original notation
!!!RDF**kern: i=editorial accidental
!!!ENC:	Chris Gage 11-06-2014
!!!END:	2015/03/02/
!!!EED:	Jesse Rodin
!!!EEV:	2015/03/05/
!!!ONB:	Translated from MusicXML and edited on 2015/03/05/ by Craig Sapp
!!muse2ps: C^@{COM}^i2I150v85,85,150Q16
